X:478
T: Chang yihetuan
N: C2097
O: China, Shanxi Yangcheng
S: I, 294]
N: Han
R: Xiaodiao, shizidiao]
M: 2/4
L: 1/16
K: G
d4B2d2 | A4G2B2 | E4E2D2 | E4E4
d2e2e2d2 | B2d2G2G2G2E2 | e2e2e2B2 | d4d4
d2e2B4 | B2ABA4 | d2d2E2G2 | A4A2B2 | A4A4

